Numix-Light/16/status/indicator-keyboard-It-4.svg

<?xml version="1.0" encoding="UTF-8" standalone="no"?>
<svg
   xmlns:dc="http://purl.org/dc/elements/1.1/"
   xmlns:cc="http://creativecommons.org/ns#"
   xmlns:rdf="http://www.w3.org/1999/02/22-rdf-syntax-ns#"
   xmlns:svg="http://www.w3.org/2000/svg"
   xmlns="http://www.w3.org/2000/svg"
   xmlns:sodipodi="http://sodipodi.sourceforge.net/DTD/sodipodi-0.dtd"
   xmlns:inkscape="http://www.inkscape.org/namespaces/inkscape"
   viewBox="0 0 16 16"
   id="svg2"
   version="1.1"
   inkscape:version="0.91 r13725"
   sodipodi:docname="indicator-keyboard-It-4.svg">
  <metadata
     id="metadata14">
    <rdf:RDF>
      <cc:Work
         rdf:about="">
        <dc:format>image/svg+xml</dc:format>
        <dc:type
           rdf:resource="http://purl.org/dc/dcmitype/StillImage" />
      </cc:Work>
    </rdf:RDF>
  </metadata>
  <defs
     id="defs12" />
  <sodipodi:namedview
     pagecolor="#ffffff"
     bordercolor="#666666"
     borderopacity="1"
     objecttolerance="10"
     gridtolerance="10"
     guidetolerance="10"
     inkscape:pageopacity="0"
     inkscape:pageshadow="2"
     inkscape:window-width="459"
     inkscape:window-height="369"
     id="namedview10"
     showgrid="false"
     inkscape:zoom="14.75"
     inkscape:cx="8"
     inkscape:cy="8"
     inkscape:window-x="65"
     inkscape:window-y="24"
     inkscape:window-maximized="0"
     inkscape:current-layer="svg2" />
  <path
     style="fill:#353535;fill-opacity:1"
     d="M 1.5996094 0 C 0.71320937 2.9605947e-16 0 0.71320937 0 1.5996094 L 0 14.400391 C 2.9605947e-16 15.286791 0.71320937 16 1.5996094 16 L 14.400391 16 C 15.286791 16 16 15.286791 16 14.400391 L 16 1.5996094 C 16 0.71320937 15.286791 0 14.400391 0 L 1.5996094 0 z M 4.0449219 4.859375 L 4.65625 4.859375 L 4.65625 11.095703 L 4.0449219 11.095703 L 4.0449219 4.859375 z M 6.7910156 4.9667969 L 6.7910156 6.4433594 L 8.6445312 6.4433594 L 8.6445312 6.9375 L 6.7910156 6.9375 L 6.7910156 9.4121094 C 6.7910156 9.6761094 6.8115156 9.8925467 6.8535156 10.060547 C 6.9015156 10.222547 6.9667813 10.349453 7.0507812 10.439453 C 7.1347812 10.529453 7.2374219 10.589141 7.3574219 10.619141 C 7.4774219 10.649141 7.6099063 10.664063 7.7539062 10.664062 C 7.9999062 10.664062 8.1976563 10.636031 8.3476562 10.582031 C 8.4976563 10.522031 8.6152187 10.469875 8.6992188 10.421875 L 8.8417969 10.90625 C 8.7577969 10.96025 8.6123438 11.023703 8.4023438 11.095703 C 8.1923437 11.161703 7.9627969 11.195312 7.7167969 11.195312 C 7.4287969 11.195312 7.1862813 11.159891 6.9882812 11.087891 C 6.7962812 11.009891 6.6414844 10.894141 6.5214844 10.744141 C 6.4074844 10.588141 6.3253438 10.397922 6.2773438 10.169922 C 6.2293437 9.9419217 6.2050781 9.671375 6.2050781 9.359375 L 6.2050781 5.0742188 L 6.7910156 4.9667969 z M 11.054688 8.8417969 L 11.451172 8.8417969 L 11.451172 11.486328 L 11.955078 11.486328 L 11.955078 11.796875 L 11.451172 11.796875 L 11.451172 12.896484 L 11.078125 12.896484 L 11.078125 11.796875 L 9.2402344 11.796875 L 9.2402344 11.5625 C 9.3104344 11.3753 9.4084031 11.163688 9.5332031 10.929688 C 9.6619031 10.695687 9.8068969 10.456638 9.9667969 10.210938 C 10.126697 9.9652374 10.299128 9.7261874 10.486328 9.4921875 C 10.673528 9.2542875 10.863587 9.0367969 11.054688 8.8417969 z M 11.078125 9.2695312 C 10.941625 9.4099312 10.802509 9.5706063 10.662109 9.7539062 C 10.521709 9.9372063 10.386512 10.129225 10.257812 10.328125 C 10.133013 10.523125 10.017403 10.719069 9.9082031 10.917969 C 9.7990031 11.116869 9.7069125 11.306928 9.6328125 11.486328 L 11.078125 11.486328 L 11.078125 9.2695312 z "
     id="path4" />
</svg>

<svg xmlns="http://www.w3.org/2000/svg" viewBox="0 0 16 16">
 <path d="m 1.6 0 c -0.886 0 -1.6 0.713 -1.6 1.6 l 0 12.801 c 0 0.886 0.713 1.6 1.6 1.6 l 12.801 0 c 0.886 0 1.6 -0.713 1.6 -1.6 l 0 -12.801 c 0 -0.886 -0.713 -1.6 -1.6 -1.6 l -12.801 0 z m 2.445 4.859 l 0.611 0 l 0 6.236 l -0.611 0 l 0 -6.236 z m 2.746 0.107 l 0 1.477 l 1.854 0 l 0 0.494 l -1.854 0 l 0 2.475 c 0 0.264 0.021 0.48 0.063 0.648 c 0.048 0.162 0.113 0.289 0.197 0.379 c 0.084 0.09 0.187 0.15 0.307 0.18 c 0.12 0.03 0.252 0.045 0.396 0.045 c 0.246 0 0.444 -0.028 0.594 -0.082 c 0.15 -0.06 0.268 -0.112 0.352 -0.16 l 0.143 0.484 c -0.084 0.054 -0.229 0.117 -0.439 0.189 c -0.21 0.066 -0.44 0.1 -0.686 0.1 c -0.288 0 -0.531 -0.035 -0.729 -0.107 c -0.192 -0.078 -0.347 -0.194 -0.467 -0.344 c -0.114 -0.156 -0.196 -0.346 -0.244 -0.574 c -0.048 -0.228 -0.072 -0.499 -0.072 -0.811 l 0 -4.285 l 0.586 -0.107 z m 4.264 3.875 l 0.396 0 l 0 2.645 l 0.504 0 l 0 0.311 l -0.504 0 l 0 1.1 l -0.373 0 l 0 -1.1 l -1.838 0 l 0 -0.234 c 0.07 -0.187 0.168 -0.399 0.293 -0.633 c 0.129 -0.234 0.274 -0.473 0.434 -0.719 c 0.16 -0.246 0.332 -0.485 0.52 -0.719 c 0.187 -0.238 0.377 -0.455 0.568 -0.65 z m 0.023 0.428 c -0.136 0.14 -0.276 0.301 -0.416 0.484 c -0.14 0.183 -0.276 0.375 -0.404 0.574 c -0.125 0.195 -0.24 0.391 -0.35 0.59 c -0.109 0.199 -0.201 0.389 -0.275 0.568 l 1.445 0 l 0 -2.217 z" style="fill:#353535;fill-opacity:1"/>
</svg>
